X:1
T:The Maids Of Castlebar
L:1/8
M:4/4
I:linebreak $
K:D
V:1 treble 
V:1
 ABc || dDDF EDB,A, | D2 FA BAFA | d3 A BdAF | DEFD EDBD | FD (3DDD EDB,A, |$ D2 FA BAFA | %7
 dfed dBAF | AFEF D2 Bc | dDDF EDB,A, | D2 FA BAFA | dDcD BDAF |$ DEFD EDBD | FD (3DDD EDB,A, | %14
 D2 FA BAFA | dfed dBAF | AFEF D4 |:${^g} a2 ga fd (3ddd | fdad fddf | gebe geef | gebe gbeg | %21
 f d3 g d3 |$ (3fed ef dBAF | ABde (3fed ef | dBAG FD D2 :| %25
